dist/svg/solarium-line.svg

<svg xmlns="http://www.w3.org/2000/svg" viewBox="0 0 24 24"><path d="M10.06 3.96c-.839.085-1.61.206-2.421.381-.735.159-3.811.922-3.969.985-.152.06-.337.282-.388.463-.057.206-.055 2.223.003 2.43.056.204.292.44.496.496.226.063 16.212.063 16.438 0a.82.82 0 0 0 .496-.496c.058-.207.06-2.224.003-2.43-.051-.181-.236-.403-.388-.463-.142-.056-3.166-.81-3.883-.968a22 22 0 0 0-2.567-.4c-1.016-.1-2.823-.099-3.82.002m3.76 1.498c1.196.115 1.93.257 4.09.792l1.33.329v.661H4.76v-.661l1.33-.33c2.495-.617 3.341-.761 5.09-.866.46-.027 2.045.018 2.64.075M6.7 9.816a.8.8 0 0 0-.403.447c-.127.333.035 1.381.324 2.091.889 2.189 3.367 3.602 5.904 3.367 2.031-.188 3.709-1.235 4.626-2.887.303-.546.503-1.218.574-1.923.041-.418.039-.489-.022-.648-.084-.221-.33-.449-.523-.486-.526-.098-.94.268-.94.833 0 .974-.585 2.063-1.463 2.722-.531.398-1.073.642-1.857.834-.299.073-1.542.073-1.84 0-.803-.198-1.333-.437-1.869-.844-.875-.665-1.448-1.734-1.452-2.71-.001-.371-.201-.7-.492-.809a.9.9 0 0 0-.567.013m-3.895.464c-.391.092-.633.519-.524.924.059.218.288.453.5.511.214.06 2.224.06 2.438 0a.84.84 0 0 0 .306-.191.739.739 0 0 0-.348-1.246c-.191-.044-2.183-.043-2.372.002m16 0c-.391.092-.633.519-.524.924.059.218.288.453.5.511.214.06 2.224.06 2.438 0a.84.84 0 0 0 .306-.191.739.739 0 0 0-.348-1.246c-.191-.044-2.183-.043-2.372.002M6.9 14.259a2 2 0 0 1-.16.04c-.161.036-1.717 1.573-1.824 1.801a.74.74 0 0 0 .584 1.05c.342.039.448-.036 1.347-.94.674-.677.833-.859.869-.99.054-.198.054-.242.002-.429a.8.8 0 0 0-.353-.448c-.111-.056-.397-.108-.465-.084m10 0a1 1 0 0 1-.147.037c-.236.052-.51.407-.512.664-.002.306.063.397.893 1.235.506.511.865.842.966.889a.74.74 0 0 0 1.049-.579c.039-.34-.018-.424-.884-1.298-.443-.447-.85-.837-.905-.865-.106-.056-.393-.107-.46-.083m-5.08 2.017a.73.73 0 0 0-.538.515c-.055.196-.055 2.222 0 2.418.108.39.52.618.92.51.22-.059.454-.287.513-.5.058-.206.06-2.224.003-2.428a.8.8 0 0 0-.353-.448.95.95 0 0 0-.545-.067" fill-rule="evenodd"/></svg>

<svg fill="none" xmlns="http://www.w3.org/2000/svg" viewBox="0 0 24 24"><path d="M10.060 3.960 C 9.221 4.045,8.450 4.166,7.639 4.341 C 6.904 4.500,3.828 5.263,3.670 5.326 C 3.518 5.386,3.333 5.608,3.282 5.789 C 3.225 5.995,3.227 8.012,3.285 8.219 C 3.341 8.423,3.577 8.659,3.781 8.715 C 4.007 8.778,19.993 8.778,20.219 8.715 C 20.423 8.659,20.659 8.423,20.715 8.219 C 20.773 8.012,20.775 5.995,20.718 5.789 C 20.667 5.608,20.482 5.386,20.330 5.326 C 20.188 5.270,17.164 4.516,16.447 4.358 C 15.646 4.182,14.764 4.044,13.880 3.958 C 12.864 3.858,11.057 3.859,10.060 3.960 M13.820 5.458 C 15.016 5.573,15.750 5.715,17.910 6.250 L 19.240 6.579 19.240 6.909 L 19.240 7.240 12.000 7.240 L 4.760 7.240 4.760 6.909 L 4.760 6.579 6.090 6.249 C 8.585 5.632,9.431 5.488,11.180 5.383 C 11.640 5.356,13.225 5.401,13.820 5.458 M6.700 9.816 C 6.526 9.893,6.374 10.062,6.297 10.263 C 6.170 10.596,6.332 11.644,6.621 12.354 C 7.510 14.543,9.988 15.956,12.525 15.721 C 14.556 15.533,16.234 14.486,17.151 12.834 C 17.454 12.288,17.654 11.616,17.725 10.911 C 17.766 10.493,17.764 10.422,17.703 10.263 C 17.619 10.042,17.373 9.814,17.180 9.777 C 16.654 9.679,16.240 10.045,16.240 10.610 C 16.240 11.584,15.655 12.673,14.777 13.332 C 14.246 13.730,13.704 13.974,12.920 14.166 C 12.621 14.239,11.378 14.239,11.080 14.166 C 10.277 13.968,9.747 13.729,9.211 13.322 C 8.336 12.657,7.763 11.588,7.759 10.612 C 7.758 10.241,7.558 9.912,7.267 9.803 C 7.115 9.745,6.846 9.751,6.700 9.816 M2.805 10.280 C 2.414 10.372,2.172 10.799,2.281 11.204 C 2.340 11.422,2.569 11.657,2.781 11.715 C 2.995 11.775,5.005 11.775,5.219 11.715 C 5.307 11.691,5.444 11.605,5.525 11.524 C 5.938 11.111,5.742 10.409,5.177 10.278 C 4.986 10.234,2.994 10.235,2.805 10.280 M18.805 10.280 C 18.414 10.372,18.172 10.799,18.281 11.204 C 18.340 11.422,18.569 11.657,18.781 11.715 C 18.995 11.775,21.005 11.775,21.219 11.715 C 21.307 11.691,21.444 11.605,21.525 11.524 C 21.938 11.111,21.742 10.409,21.177 10.278 C 20.986 10.234,18.994 10.235,18.805 10.280 M6.900 14.259 C 6.878 14.267,6.806 14.285,6.740 14.299 C 6.579 14.335,5.023 15.872,4.916 16.100 C 4.702 16.560,4.998 17.094,5.500 17.150 C 5.842 17.189,5.948 17.114,6.847 16.210 C 7.521 15.533,7.680 15.351,7.716 15.220 C 7.770 15.022,7.770 14.978,7.718 14.791 C 7.670 14.617,7.514 14.419,7.365 14.343 C 7.254 14.287,6.968 14.235,6.900 14.259 M16.900 14.259 C 16.878 14.267,16.812 14.284,16.753 14.296 C 16.517 14.348,16.243 14.703,16.241 14.960 C 16.239 15.266,16.304 15.357,17.134 16.195 C 17.640 16.706,17.999 17.037,18.100 17.084 C 18.558 17.297,19.094 17.002,19.149 16.505 C 19.188 16.165,19.131 16.081,18.265 15.207 C 17.822 14.760,17.415 14.370,17.360 14.342 C 17.254 14.286,16.967 14.235,16.900 14.259 M11.820 16.276 C 11.554 16.342,11.353 16.534,11.282 16.791 C 11.227 16.987,11.227 19.013,11.282 19.209 C 11.390 19.599,11.802 19.827,12.202 19.719 C 12.422 19.660,12.656 19.432,12.715 19.219 C 12.773 19.013,12.775 16.995,12.718 16.791 C 12.670 16.617,12.514 16.419,12.365 16.343 C 12.224 16.271,11.967 16.240,11.820 16.276 " stroke="none" fill-rule="evenodd" fill="currentColor"/></svg>
